!!!!SEGMENT: pl-stab--10e--001_zebrowski-marcin-jozef--vespere-ex-d-dixit-dominus.krn
!!!cenid: 18xx:3417
!!!COM: Żebrowski, Marcin Józef
!!!COM-rismID: pe30020322
!!!CDT: 1702-1770/06/29
!!!CNT: Polish
!!!OPR: Vespere ex D
!!!OTL: Dixit Dominus
!!!OMV: 001
!!!PDT: 1801
!!!AGN:
!!!SMS-siglum: PL-STAb
!!!SMS-shelfmark: 10e
!!!SMS-variant:
!!!SMS-altvar:
!!!SMS-shelfwork: M
!!!NIFC-rismSourceID: 301050566
!!!NIFC-islandoraID: pl-stab:2368
!!!URL-pdf-islandora: https://repozytorium.nifc.pl/islandora/object/pl-stab%3A2368/datastream/PDF/view
!!!URL-scan: https://polish.musicsources.pl/pl/lokalizacje/galeria/rekopisy/4401 @EN{Scan on Polish Music Herritage in Open Access Website} @PL{Skany w portalu Dziedzictwo Muzyki Polskiej w otwartym dostępie}
!!!ONB-nifc: UWAGA: części Vespere: 1. Dixit Dominus, 2. Detorente, 3. Gloria Patri (razem z Sicut erat), 4. Magnificat, 5. Gloria Patri (z Sicut erat i Amen)
!!!AIN: 3 empty 1 organ 2 violn 1 vox
!!!key:
**kern	**fba	**kern	**kern	**kern	**text	**kern	**text	**kern	**kern
*part7	*part7	*part6	*part5	*part4	*part4	*part3	*part3	*part2	*part1
*staff7	*	*staff6	*staff5	*staff4	*staff4	*staff3	*staff3	*staff2	*staff1
*Iorgan	*	*Ivioln	*Ivioln	*Iempty	*	*Ivox	*	*Iempty	*Iempty
*I"Organo	*	*I"Violino Secundo	*I"Violino Primo	*I"Baſso	*	*I"Canto	*	*I"Cornu Secundo	*I"Cornu Primo in D.
*I'org	*	*I'vl 2	*I'vl 1	*I'B	*	*I'S	*	*I'cor 2 in D	*I'cor 1 in D
*clefF4	*	*clefG2	*clefG2	*clefF4	*	*clefC1	*	*clefG2	*clefG2
*	*	*	*	*	*	*	*	*ITrd6c10	*ITrd6c10
*k[f#c#]	*	*k[f#c#]	*k[f#c#]	*k[f#c#]	*	*k[c#f#]	*	*k[f#c#]	*k[f#c#]
*D:	*	*D:	*D:	*D:	*	*D:	*	*D:	*D:
*M2/2	*	*M2/2	*M2/2	*M2/2	*	*M2/2	*	*M2/2	*M2/2
*met(c|)	*	*met(c|)	*met(c|)	*met(c|)	*	*met(c|)	*	*met(c|)	*met(c|)
=1	=1	=1	=1	=1	=1	=1	=1	=1	=1
*2\right	*	*2\right	*2\right	*2\right	*	*2\right	*	*	*2\right
!LO:TX:a:t=|	!	!	!	!	!	!	!	!	!
!LO:TX:b:t=uniſono	!	!	!	!	!	!	!	!	!
!LO:TX:a:t=Tutti	!	!LO:TX:a:B:t=Allo	!	!LO:TX:a:B:t=Allo	!	!LO:TX:a:B:t=Allo	!	!	!
!LO:TX:a:B:t=Allo	!	!	!	!	!	!	!	!	!LO:TX:a:B:t=Allegro
2d\	.	2dd\	2dd\	2d\	Di-	2dd\	Di-	2D/	2d\
!LO:TX:a:t=|	!	!	!	!	!	!	!	!	!
2A\	.	2a/	2a/	2A\	-xit	2a\	-xit	2A/	2A/
=2	=2	=2	=2	=2	=2	=2	=2	=2	=2
!	!	!	!	!	!	!	!	!	!LO:SIC:v:t=dysonujący pion
.	.	8qqg/	.	.	.	.	.	.	.
4.F#t\	.	4.f#/	4.f#/	4.F#\	Do-	4.f#/	Do-	4d\	4.f#\
.	.	.	.	.	.	.	.	4A\	.
8E\	.	8e/	8e/	8E\	-mi-	8e/	-mi-	.	8e\
2D\	.	2d/	2d/	2D\	-nus	2d/	-nus	2F#/	2d\
=3	=3	=3	=3	=3	=3	=3	=3	=3	=3
4F#'\	.	4f#/	4f#/	4F#\	Do-	4f#/	Do-	4d\	4f#\
!	!	!LO:TUP:a:problem=klamra łukowa	!LO:TUP:b:problem=klamra łukowa	!	!	!	!	!	!
4D'\	.	12d/L	12d/L	4D\	.	4d/	.	4F#/	4d\
.	.	12c#/	12c#/	.	.	.	.	.	.
.	.	12d/J	12d/J	.	.	.	.	.	.
!	!	!LO:TUP:b:problem=klamra łukowa	!LO:TUP:b:problem=klamra łukowa	!	!	!	!	!	!
4F#'\	.	12f#/L	12f#/L	4F#\	-mi-	4f#/	-mi-	4d\	4f#\
.	.	12e/	12e/	.	.	.	.	.	.
.	.	12f#/J	12f#/J	.	.	.	.	.	.
!	!	!LO:TUP:b:problem=klamra łukowa	!LO:TUP:b:problem=klamra łukowa	!	!	!	!	!	!
4G#X'\	.	12g#X/L	12g#X/L	4G#X\	-no	4g#X/	-no	4e\	4g#X\
.	.	12f#/	12f#/	.	.	.	.	.	.
.	.	12g#/J	12g#/J	.	.	.	.	.	.
=4	=4	=4	=4	=4	=4	=4	=4	=4	=4
4A'\	.	4a/	4a/	4A\	me-	4a\	me-	4A/	4a\
4AA'/	.	4A/	4A/	4AA/	-o	4a\	-o	4A/	4A/
2r	.	2r	2r	4r	.	2r	.	2r	2r
.	.	.	.	4r	.	.	.	.	.
=5	=5	=5	=5	=5	=5	=5	=5	=5	=5
*	*	*	*	*	*	*	*	*2\right	*
4d'\	.	4a/	2ff#\	2d\	Se-	2ff#\	Se-	2d\	2f#\
4A\	.	2a/	.	.	.	.	.	.	.
4c#\	6	.	4ee\	4c#\	-det	4ee\	-det	2A/	2e\
4A\	.	4a/	8gg#X\L	4c#\	a	4ee\	a	.	.
.	.	.	8aa\J	.	.	.	.	.	.
=6	=6	=6	=6	=6	=6	=6	=6	=6	=6
4d\	.	4a/	(8ff#\L	2d\	dex-	2ff#\	dex-	2d\	2f#\
.	.	.	8gg#X\)	.	.	.	.	.	.
4A\	.	2a/	(8gg#\	.	.	.	.	.	.
.	.	.	8aa\J)	.	.	.	.	.	.
4c#\	6	.	(8ee\L	2c#\	-tris	2ee\	-tris	2r	2r
.	.	.	8gg#\)	.	.	.	.	.	.
4A\	.	4a/	(8gg#\	.	.	.	.	.	.
.	.	.	8aa\J)	.	.	.	.	.	.
!!pagebreak:original
!	!	!LO:LB:g=original	!LO:LB:g=original	!	!	!	!	!	!
=7	=7	=7	=7	=7	=7	=7	=7	=7	=7
.	.	.	8qqee/	.	.	.	.	.	.
4B\	7	4a/	1dd	1B	me-	1dd	me-	1A	1e
4BB/	.	8g#X/L	.	.	.	.	.	.	.
.	.	8f#/J	.	.	.	.	.	.	.
4BB/	6\	4g#X/	.	.	.	.	.	.	.
4BB/	.	4g#/	.	.	.	.	.	.	.
=8	=8	=8	=8	=8	=8	=8	=8	=8	=8
!	!	!LO:TX:t=P:problem=mixed beam	!LO:TX:t=P:problem=mixed beam	!	!	!	!	!	!
.	.	.	.	.	.	8qqdd/	.	.	.
4AA/	.	8cc#\L	8cc#\L	2A\	-is	2cc#\	-is	2A/	2A/
.	.	8A/	8A/	.	.	.	.	.	.
8BB/L	.	8B/	8B/	.	.	.	.	.	.
8C#/J	.	8c#/J	8c#/J	.	.	.	.	.	.
8D\L	.	8d/L	8d/L	2r	.	2r	.	2r	2r
8E\	.	8e/	8e/	.	.	.	.	.	.
8F#\	.	8f#/	8f#/	.	.	.	.	.	.
8G#X\J	.	8g#X/J	8g#X/J	.	.	.	.	.	.
!	!	!	!	!LO:LB:g=original	!	!	!	!	!LO:LB:g=original
=9	=9	=9	=9	=9	=9	=9	=9	=9	=9
!LO:TX:b:t=uniſono	!	!	!	!	!	!	!	!	!
2A'\	.	2a/	2a/	2A\	Do-	2a\	Do-	2A\	2a\
2E'\	.	2e/	2e/	2E\	-nec	2ee\	-nec	2e\	2e\
!	!	!	!	!	!	!	!	!LO:LB:g=original	!
=10	=10	=10	=10	=10	=10	=10	=10	=10	=10
.	.	8qqd/	8qqd/	.	.	.	.	.	.
4.C#t/	.	4.c#/	4.c#/	4.C#/	po-	4.cc#\	po-	2A/	2A/
8BB/	.	8B/	8B/	8D/	.	8b\	.	.	.
2AA/	.	2A/	2A/	2AA/	-nam	2a\	-nam	2r	2r
!LO:LB:g=original	!	!	!	!	!	!LO:LB:g=original	!	!	!
=11	=11	=11	=11	=11	=11	=11	=11	=11	=11
!	!	!	!LO:TX:a:t=|	!	!	!	!	!	!LO:TX:a:t=1
4c#'\	.	4cc#\	4cc#\	4c#\	i-	4cc#\	i-	1r	1r
*	*	*Xtuplet	*	*	*	*	*	*	*
!	!	!	!LO:TUP:b:problem=klamra łukowa	!	!	!	!	!	!
4A'\	.	12a/L	12a/L	4A\	-ni-	4a\	-ni-	.	.
.	.	12g#X/	12g#X/	.	.	.	.	.	.
.	.	12a/J	12a/J	.	.	.	.	.	.
!	!	!	!LO:TUP:a:problem=klamra łukowa	!	!	!	!	!	!
4c#'\	.	12cc#\L	12cc#\L	4c#\	-mi-	4cc#\	-mi-	.	.
.	.	12b\	12b\	.	.	.	.	.	.
.	.	12cc#\J	12cc#\J	.	.	.	.	.	.
!	!	!	!LO:TUP:a:problem=klamra łukowa	!	!	!	!	!	!
4d#X'\	.	12dd#X\L	12dd#X\L	4d#X\	-cos	4dd#X\	-cos	.	.
.	.	12cc#\	12cc#\	.	.	.	.	.	.
.	.	12dd#\J	12dd#\J	.	.	.	.	.	.
=12	=12	=12	=12	=12	=12	=12	=12	=12	=12
4e\	.	4ee\	4ee\	4e\	tu-	4ee\	tu-	2e\	2e\
4E\	.	4e/	4e/	4E\	-os	4e/	-os	.	.
2r	.	2r	2r	2r	.	2r	.	2r	2r
!!linebreak:original
=13	=13	=13	=13	=13	=13	=13	=13	=13	=13
4A\	.	4e/	2cc#\	2A\	ſca-	2cc#\	sca-	2A/	2a\
4E\	.	2e/	.	.	.	.	.	.	.
4G#X\	6	.	4b\	4G#X\	-bel-	4b\	-bel-	2e\	2e\
4E\	.	4e/	8dd#X\L	4G#\	-lum	4b\	-lum	.	.
.	.	.	8ee\J	.	.	.	.	.	.
!	!	!LO:LB:g=original	!	!	!	!	!	!	!
=14	=14	=14	=14	=14	=14	=14	=14	=14	=14
!	!	!	!	!	!	!	!	!LO:TX:a:t=3	!LO:TX:a:t=3
4A\	.	4e/	(8cc#\L	2A\	pe-	2cc#\	pe-	0r	0r
.	.	.	8dd#X\)	.	.	.	.	.	.
4E\	.	2e/	(8dd#\	.	.	.	.	.	.
.	.	.	8ee\J)	.	.	.	.	.	.
4G#X\	6	.	(8b\L	4G#X\	-dum	4b\	-du(m)	.	.
.	.	.	8dd#X\)	.	.	.	.	.	.
4E\	.	4e/	(8dd#\	4G#\	tu-	4ee\	tu-	.	.
.	.	.	8ee\J)	.	.	.	.	.	.
!	!	!	!LO:LB:g=original	!	!	!	!	!	!
=15	=15	=15	=15	=15	=15	=15	=15	=15	=15
.	.	.	.	.	.	8qqb/	.	.	.
4F#\	7	4e/	2a/	1F#	-o-	1a	-o-	.	.
4F#\	.	8d#X/L	.	.	.	.	.	.	.
.	.	8c#/J	.	.	.	.	.	.	.
4F#\	6\	2d#X/	2a/	.	.	.	.	.	.
4F#\	.	.	.	.	.	.	.	.	.
=16	=16	=16	=16	=16	=16	=16	=16	=16	=16
.	.	.	8qqa/	.	.	8qqa/	.	.	.
4E\	.	2e/	2g#X/	2E\	-rum	2g#X/	-rum	1r	1r
8G#X'\L	.	.	.	.	.	.	.	.	.
8F#'\J	.	.	.	.	.	.	.	.	.
8E'\L	.	2r	2r	2r	.	2r	.	.	.
8D'\	.	.	.	.	.	.	.	.	.
8C#'\	.	.	.	.	.	.	.	.	.
8BB'\J	.	.	.	.	.	.	.	.	.
=17	=17	=17	=17	=17	=17	=17	=17	=17	=17
4AA/	.	2r	4.cc#\	2r	.	4ee\	vir-	1A	1A
4AA/	.	.	.	.	.	8ee\	-ga(m)	.	.
.	.	.	(16dd\LL	.	.	8ee\	vir-	.	.
.	.	.	16ee\JJ)	.	.	.	.	.	.
4AA/	.	4.cc#\	2a/	2A\	e-	4ee\	-tu-	.	.
4AA/	.	.	.	.	.	4ee\	-tis	.	.
.	.	(16dd\LL	.	.	.	.	.	.	.
.	.	16ee\JJ)	.	.	.	.	.	.	.
!!pagebreak:original
!	!	!	!	!LO:LB:g=original	!	!	!	!	!
=18	=18	=18	=18	=18	=18	=18	=18	=18	=18
4AA/	7n	2a/	4.cc#\	2A\	-mit-	2ee\	tu-	1A	1A
4AA/	.	.	.	.	.	.	.	.	.
.	.	.	(16dd\LL	.	.	.	.	.	.
.	.	.	16ee\JJ)	.	.	.	.	.	.
.	.	.	8qqa/	.	.	.	.	.	.
4AA/	.	4.cc#\	2gn/	2A\	-te	2ee\	-e	.	.
4AA/	.	.	.	.	.	.	.	.	.
.	.	(16dd\LL	.	.	.	.	.	.	.
.	.	16ee\JJ)	.	.	.	.	.	.	.
=19	=19	=19	=19	=19	=19	=19	=19	=19	=19
4r	.	4dd\	4f#/	4.d\	Do-	2dd\	e-	4d\	4f#\
4D\	.	2ff#\	2aa\	.	.	.	.	2A/	2a\
.	.	.	.	8d\	-mi-	.	.	.	.
4F#\	6	.	.	4F#\	-nus	4dd\	-mit-	.	.
4A\	7	4ee\	4gg\	4A\	ex	16dd\KL	-tet	4e\	4g\
.	.	.	.	.	.	8.cc#\J	.	.	.
=20	=20	=20	=20	=20	=20	=20	=20	=20	=20
4d\	4 9	2ee\	2gg\	2d\	ſi-	4.a\	Do-	2e\	2g\
4D/	.	.	.	.	.	.	.	.	.
.	.	.	.	.	.	8a\	-mi-	.	.
4D/	3 8	2dd\	2ff#\	2D\	-on	2a\	-nus	2d\	2f#\
4Cn/	4 2	.	.	.	.	.	.	.	.
!	!	!	!	!	!	!LO:LB:g=original	!	!	!
=21	=21	=21	=21	=21	=21	=21	=21	=21	=21
!	!	!	!	!	!	!LO:N:vis=8	!	!	!LO:TX:a:t=4
4BB/	3#	2r	4.dd#X\	4B\	Do-	4dd#X\	Do-	00r	00r
4BB/	.	.	.	4B\	-mi-	4ff#\	-mi-	.	.
.	.	.	(16ee\LL	.	.	.	.	.	.
.	.	.	16ff#\JJ)	.	.	.	.	.	.
4BB/	.	4.dd#X\	2b\	4B\	-na-	4ff#\	-na-	.	.
4BB/	.	.	.	8B\L	-re	8ff#\	-re	.	.
.	.	16ee\LL	.	8B\J	in	8ff#\	in	.	.
.	.	16ff#\JJ	.	.	.	.	.	.	.
!	!	!LO:LB:g=original	!	!	!	!	!	!	!
=22	=22	=22	=22	=22	=22	=22	=22	=22	=22
4BB/	7 3#	2b\	4.dd#X\	4.B\	me-	4ff#\	me-	.	.
4BB/	.	.	.	.	.	4ff#\	-di-	.	.
.	.	.	(16ee\LL	8B\	-di-	.	.	.	.
.	.	.	16ff#\JJ)	.	.	.	.	.	.
.	.	.	8qqb/	.	.	.	.	.	.
4BB/	.	4.dd#X\	2a/	4B\	-o	4ff#\	-o	.	.
4BB/	.	.	.	8B\	i-	8ff#\	i-	.	.
.	.	(16ee\LL	.	8B\	-ni-	8ff#\	-ni-	.	.
.	.	16ff#\JJ)	.	.	.	.	.	.	.
!!linebreak:original
!LO:LB:g=original	!	!	!	!	!	!	!	!	!
=23	=23	=23	=23	=23	=23	=23	=23	=23	=23
4r	.	4ee\	4g#X/	4e\	-mi-	4ee\	-mi-	.	.
4E\	3#	2gg#X\	2bb\	4E\	-co-	4ee\	-co-	.	.
4G#X\	6	.	.	4G#X\	.	4ee\	-ru(m)	.	.
4B\	4 3#	4ee\	4aa\	4B\	-rum	16ee\KL	tu-	.	.
.	.	.	.	.	.	8.dd#X\J	.	.	.
=24	=24	=24	=24	=24	=24	=24	=24	=24	=24
4e\	4 9	2ff#\	2aa\	2e\	tu-	2b\	-o-	.	.
4E\	.	.	.	.	.	.	.	.	.
4E\	3# 8	2ee\	2gg#X\	4E\	-o-	2b\	-rum	.	.
4Dn\	4+ 2	.	.	4D\	-rum	.	.	.	.
!	!	!	!LO:LB:g=original	!LO:LB:g=original	!	!	!	!	!
=25	=25	=25	=25	=25	=25	=25	=25	=25	=25
*	*	*	*Xtuplet	*	*	*	*	*	*
4C#/	6	4ee\	12a'/L	2C#/	Te-	4r	.	2e\	2e\
.	.	.	12a'/	.	.	.	.	.	.
.	.	.	12a'/J	.	.	.	.	.	.
4A'\	.	2ee\	12cc#'\L	.	.	4a\	te-	.	.
.	.	.	12cc#'\	.	.	.	.	.	.
.	.	.	12cc#'\J	.	.	.	.	.	.
4C#'/	.	.	12ee'\L	4C#/	-cu(m)	4cc#\	-cu(m)	2e\	2e\
.	.	.	12ee'\	.	.	.	.	.	.
.	.	.	12ee'\J	.	.	.	.	.	.
4A'\	.	4ee\	12aa'\L	4C#/	prin-	4ee\	prin-	.	.
.	.	.	12aa'\	.	.	.	.	.	.
.	.	.	12aa'\J	.	.	.	.	.	.
=26	=26	=26	=26	=26	=26	=26	=26	=26	=26
4D/	9	4ee\	12a/L	4.D/	-ci-	4.ff#\	-ci-	2d\	2f#\
.	.	.	12a/	.	.	.	.	.	.
.	.	.	12a/J	.	.	.	.	.	.
4D/	.	4f#/	12dd\L	.	.	.	.	.	.
.	.	.	12dd\	.	.	.	.	.	.
.	.	.	.	8D/	-pi-	8ff#\	-pi-	.	.
.	.	.	12dd\J	.	.	.	.	.	.
4D/	8	4a/	12ff#\L	4D/	-um	4ff#\	.	2A/	2f#\
.	.	.	12ff#\	.	.	.	.	.	.
.	.	.	12ff#\J	.	.	.	.	.	.
4D/	.	4f#/	12aa\L	4D/	in	4ff#\	-um	.	.
.	.	.	12aa\	.	.	.	.	.	.
.	.	.	12aa\J	.	.	.	.	.	.
!	!	!	!	!	!	!	!	!	!LO:LB:g=original
=27	=27	=27	=27	=27	=27	=27	=27	=27	=27
!LO:TX:t=P:problem=nadmiarowy takt w cor 2	!	!LO:TX:t=P:problem=nadmiarowy takt w cor 2	!LO:TX:t=P:problem=nadmiarowy takt w cor 2	!LO:TX:t=P:problem=nadmiarowy takt w cor 2	!	!LO:TX:t=P:problem=nadmiarowy takt w cor 2	!	!LO:TX:t=P:problem=nadmiarowy takt?	!LO:TX:t=P:problem=nadmiarowy takt w cor 2
1ryy	.	1ryy	1ryy	1ryy	.	1ryy	.	2d\	1ryy
.	.	.	.	.	.	.	.	2A/	.
!!pagebreak:original
!	!	!	!	!	!	!	!	!LO:LB:g=original	!
=28	=28	=28	=28	=28	=28	=28	=28	=28	=28
!	!	!	!	!	!	!	!	!LO:TX:a:t=4	!LO:TX:a:t=4
4BB/	6\	4dd\	12g#X/L	4B\	di-	4dd\	in	00r	00r
.	.	.	12g#/	.	.	.	.	.	.
.	.	.	12g#/J	.	.	.	.	.	.
!	!	!	!	!LO:TX:t=P:problem=tutaj tekst źle podpisany, przesunięty	!	!	!	!	!
4G#X'\	.	2dd\	12b\L	8B\	-e vir-	8dd\	di-	.	.
.	.	.	12b\	.	.	.	.	.	.
.	.	.	.	8B\	-tu-	8dd\	-e	.	.
.	.	.	12b\J	.	.	.	.	.	.
4BB'/	.	.	12dd\L	4B\	-tis	4dd\	vir-	.	.
.	.	.	12dd\	.	.	.	.	.	.
.	.	.	12dd\J	.	.	.	.	.	.
4G#X'\	.	4dd\	12gg#X\L	4B\	tu-	4dd\	-tu-	.	.
.	.	.	12gg#\	.	.	.	.	.	.
.	.	.	12gg#\J	.	.	.	.	.	.
!	!	!	!	!	!	!LO:LB:g=original	!	!	!
=29	=29	=29	=29	=29	=29	=29	=29	=29	=29
4C#/	9 5	4dd\	12g#X/L	4c#\	-e	4ee\	-tis	.	.
.	.	.	12g#/	.	.	.	.	.	.
.	.	.	12g#/J	.	.	.	.	.	.
4C#/	.	4e/	12cc#\L	4c#\	in	4ee\	tu-	.	.
.	.	.	12cc#\	.	.	.	.	.	.
.	.	.	12cc#\J	.	.	.	.	.	.
4C#/	8	4g#X/	12ee\L	4c#\	splen-	4ee\	-e	.	.
.	.	.	12ee\	.	.	.	.	.	.
.	.	.	12ee\J	.	.	.	.	.	.
4C#/	.	4e/	12gg#X\L	4c#\	-do-	4ee\	in	.	.
.	.	.	12gg#\	.	.	.	.	.	.
.	.	.	12gg#\J	.	.	.	.	.	.
=30	=30	=30	=30	=30	=30	=30	=30	=30	=30
4AA/	6	4cc#\	12f#/L	4.A\	-ri-	4.cc#\	splen-	.	.
.	.	.	12f#/	.	.	.	.	.	.
.	.	.	12f#/J	.	.	.	.	.	.
4F#'\	.	2cc#\	12a/L	.	.	.	.	.	.
.	.	.	12a/	.	.	.	.	.	.
.	.	.	.	8A\	-ri-	8cc#\	-do-	.	.
.	.	.	12a/J	.	.	.	.	.	.
!	!	!	!LO:LB:g=original	!	!	!	!	!	!
4AA'/	.	.	12cc#\L	4A\	-bus	4cc#\	-ri-	.	.
.	.	.	12cc#\	.	.	.	.	.	.
.	.	.	12cc#\J	.	.	.	.	.	.
4F#'\	.	4cc#\	12ff#\L	4A\	San-	4cc#\	-bus	.	.
.	.	.	12ff#\	.	.	.	.	.	.
.	.	.	12ff#\J	.	.	.	.	.	.
!	!	!LO:LB:g=original	!	!	!	!	!	!	!
=31	=31	=31	=31	=31	=31	=31	=31	=31	=31
4BB/	9	4cc#\	12f#/L	1B	-cto-	1dd	Sancto-	.	.
.	.	.	12f#/	.	.	.	.	.	.
.	.	.	12f#/J	.	.	.	.	.	.
4BB/	.	4d/	12b\L	.	.	.	.	.	.
.	.	.	12b\	.	.	.	.	.	.
.	.	.	12b\J	.	.	.	.	.	.
4BB/	8	4f#/	12dd\L	.	.	.	.	.	.
.	.	.	12dd\	.	.	.	.	.	.
.	.	.	12dd\J	.	.	.	.	.	.
4BB/	.	4d/	12ff#\L	.	.	.	.	.	.
.	.	.	12ff#\	.	.	.	.	.	.
.	.	.	12ff#\J	.	.	.	.	.	.
!!linebreak:original
=32	=32	=32	=32	=32	=32	=32	=32	=32	=32
!	!	!	!LO:TX:b:t=|	!	!	!	!	!	!
4E\	3#	4e/	4e/	4E\	-rum	4e/	-ru(m)	2e\	2e\
4r	.	4b/	(4dd\	4B\	ex	4dd\	-ex	.	.
2r	.	4a/	4cc#\	8A\	u-	8cc#\	u-	2r	2r
.	.	.	.	8A\	-te-	8cc#\	-te-	.	.
.	.	4g#X/	4b\)	4G#X\	-ro	4cc#\	-ro	.	.
!	!	!	!	!LO:LB:g=original	!	!	!	!	!
=33	=33	=33	=33	=33	=33	=33	=33	=33	=33
!	!	!LO:TX:b:t=|	!LO:TX:b:t=|	!	!	!	!	!	!
4E\	6 4	4e/	4e/	4r	.	4r	.	2e\	2e\
4r	.	(4cc#\	(4ee\	4c#\	ex	4ee\	ex	.	.
2r	.	4b\	4dd\	8B\	u-	8dd\	u-	2r	2r
.	.	.	.	8B\	-te-	8dd\	-te-	.	.
.	.	4a\)	4cc#\)	4A\	-ro	4cc#\	-ro	.	.
=34	=34	=34	=34	=34	=34	=34	=34	=34	=34
!	!	!LO:TX:b:t=|	!LO:TX:b:t=|	!	!	!	!	!	!
4E\	7 3#	4e/	4e/	4r	.	4r	.	2e\	2e\
4r	.	(4dd\	(4ff#\	4d\	an-	4ff#\	an-	.	.
2r	.	4cc#\	4ee\	4c#\	.	4ee\	.	2r	2r
.	.	4b\)	4dd\)	4B\	-te	4dd\	-te	.	.
=35	=35	=35	=35	=35	=35	=35	=35	=35	=35
!	!	!	!LO:TX:b:t=|	!	!	!	!	!	!
4E\	7 3#	4e/	4e/	4r	.	4r	.	2e\	2e\
*	*	*	*	*	*ij	*	*ij	*	*
4r	.	(8dd\L	(4bb\	4B\	an-	4dd\	an-	.	.
.	.	8ee\J)	.	.	.	.	.	.	.
2r	.	(8cc#\L	4aa\	4A\	.	4cc#\	.	2r	2r
.	.	8ee\)	.	.	.	.	.	.	.
.	.	(8b\	4gg#X\)	4G#X\	-te	4b\	-te	.	.
.	.	8ee\J)	.	.	.	.	.	.	.
*	*	*	*	*	*Xij	*	*Xij	*	*
!LO:LB:g=original	!	!	!	!	!	!	!	!	!
=36	=36	=36	=36	=36	=36	=36	=36	=36	=36
4r	.	[4cc#\	12aa\L	2A\	an-	2cc#\	an-	2A/	2a\
.	.	.	12gg#X\	.	.	.	.	.	.
.	.	.	12ff#\J	.	.	.	.	.	.
4A\	.	4cc#\]	2ee\	.	.	.	.	.	.
!	!	!LO:TX:a:t=|	!	!	!	!	!	!	!
4B\	6\	4dd\	.	4B\	.	2ee\	.	2r	2r
!	!	!LO:TX:a:t=|	!	!	!	!	!	!	!
4G#X\	6 5	4b\	[4ee\	4G#X\	.	.	.	.	.
!	!	!	!	!	!	!LO:LB:g=original	!	!	!
=37	=37	=37	=37	=37	=37	=37	=37	=37	=37
!	!	!	!	!	!	!	!	!LO:TX:a:t=4	!LO:TX:a:t=4
4A\	.	4cc#\	4ee\]	2A\	.	1ee	.	00r	00r
4AA/	.	4c#/	2ee\	.	.	.	.	.	.
4BB/	6\	4d/	.	4B\	.	.	.	.	.
4GG#X/	6 5	4B/	4ee\	4G#X\	.	.	.	.	.
=38	=38	=38	=38	=38	=38	=38	=38	=38	=38
4AA/	.	4c#/	4ee\	2A\	-te	2ee\	-te	.	.
4A\	.	4cc#\	4ee\	.	.	.	.	.	.
4B\	6\	4dd\	2ee\	4B\	lu-	2ee\	lu-	.	.
4G#X\	6 5	4b\	.	4G#X\	.	.	.	.	.
!!pagebreak:original
!	!	!LO:LB:g=original	!LO:LB:g=original	!	!	!	!	!	!
=39	=39	=39	=39	=39	=39	=39	=39	=39	=39
2AA'/	.	2cc#\	4ff#\	4.A\	-ci-	4.ee\	-ci-	.	.
.	.	.	4aa\	.	.	.	.	.	.
.	.	.	.	8A\	-fe-	8ee\	-fe-	.	.
2BB'/	6\	2dd\	32gg#X\LLL	2B\	-rum	2dd\	-rum	.	.
.	.	.	32ff#\JJ	.	.	.	.	.	.
.	.	.	8.ee\J	.	.	.	.	.	.
.	.	.	32dd\LLL	.	.	.	.	.	.
.	.	.	32cc#\JJ	.	.	.	.	.	.
.	.	.	8.b\J	.	.	.	.	.	.
!	!	!	!	!LO:LB:g=original	!	!	!	!	!
=40	=40	=40	=40	=40	=40	=40	=40	=40	=40
4r	.	4r	4.a/	4r	.	(16cc#\LL	ge-	.	.
.	.	.	.	.	.	16b\JJ)	.	.	.
.	.	.	.	.	.	4a\	.	.	.
*	*	*tuplet	*	*	*	*	*	*	*
!LO:TX:b:t=|	!	!LO:TUP:a:problem=klamra łukowa	!	!	!	!	!	!	!
4C#/	6	12e/L	.	4C#/	ge-	.	.	.	.
.	.	12d/	.	.	.	.	.	.	.
.	.	.	8b/	.	.	8b\	-nu-	.	.
.	.	12e/J	.	.	.	.	.	.	.
!LO:TX:b:t=|	!	!LO:TUP:b:problem=klamra łukowa	!	!	!	!	!	!	!
4D/	6	12f#/L	2b\	4D/	-nu-	4.b\	.	.	.
.	.	12e/	.	.	.	.	.	.	.
.	.	12f#/J	.	.	.	.	.	.	.
!	!	!LO:TUP:b:problem=klamra łukowa	!	!	!	!	!	!	!
4E\	7 3#	12g#X/L	.	4E/	-i	.	.	.	.
.	.	12f#/	.	.	.	.	.	.	.
.	.	.	.	.	.	8b\	-i	.	.
.	.	12g#/J	.	.	.	.	.	.	.
=41	=41	=41	=41	=41	=41	=41	=41	=41	=41
4AA/	.	16a/LL	4a\	2AA/	te	2a\	te	2e\	2e\
.	.	16e/	.	.	.	.	.	.	.
.	.	16e/	.	.	.	.	.	.	.
.	.	16e/JJ	.	.	.	.	.	.	.
4C#/	6	16e/LL	16aa\LL	.	.	.	.	.	.
.	.	16e/	16aa\	.	.	.	.	.	.
.	.	16e/	16aa\	.	.	.	.	.	.
.	.	16e/JJ	16aa\JJ	.	.	.	.	.	.
*	*	*tremolo	*tremolo	*	*	*	*	*	*
4C#/	.	16e/LL	16ee\LL	2r	.	2r	.	2e\	2e\
.	.	16e/	16ee\	.	.	.	.	.	.
.	.	16e/	16ee\	.	.	.	.	.	.
.	.	16e/	16ee\JJ	.	.	.	.	.	.
4C#/	.	16e/	16cc#\LL	.	.	.	.	.	.
.	.	16e/	16cc#\	.	.	.	.	.	.
.	.	16e/	16cc#\	.	.	.	.	.	.
.	.	16e/JJ	16cc#\JJ	.	.	.	.	.	.
!!linebreak:original
=42	=42	=42	=42	=42	=42	=42	=42	=42	=42
!	!	!	!	!	!	!LO:TX:a:t=1	!	!	!
4D/	.	16f#/LL	4a\	1r	.	1r	.	2d\	2f#\
.	.	16f#/	.	.	.	.	.	.	.
.	.	16f#/	.	.	.	.	.	.	.
.	.	16f#/	.	.	.	.	.	.	.
4D/	.	16f#/	16aa\LL	.	.	.	.	.	.
.	.	16f#/	16aa\	.	.	.	.	.	.
.	.	16f#/	16aa\	.	.	.	.	.	.
.	.	16f#/JJ	16aa\JJ	.	.	.	.	.	.
4D/	.	16f#/LL	16ee\LL	.	.	.	.	2d\	2f#\
.	.	16f#/	16ee\	.	.	.	.	.	.
.	.	16f#/	16ee\	.	.	.	.	.	.
.	.	16f#/	16ee\JJ	.	.	.	.	.	.
4D/	.	16f#/	16cc#\LL	.	.	.	.	.	.
.	.	16f#/	16cc#\	.	.	.	.	.	.
.	.	16f#/	16cc#\	.	.	.	.	.	.
.	.	16f#/JJ	16cc#\JJ	.	.	.	.	.	.
*	*	*Xtremolo	*Xtremolo	*	*	*	*	*	*
=43	=43	=43	=43	=43	=43	=43	=43	=43	=43
4E\	6 4	8r	8r	1e	ge-	(16cc#\LL	ge-	2A/	2a\
.	.	.	.	.	.	16b\JJ)	.	.	.
.	.	8a/	8cc#\	.	.	4.a\	.	.	.
*	*	*	*tuplet	*	*	*	*	*	*
!	!	!LO:TUP:b:problem=klamra łukowa	!LO:TUP:a:problem=klamra łukowa	!	!	!	!	!	!
4E\	.	12a/L	12cc#\L	.	.	.	.	.	.
.	.	12b/	12dd\	.	.	.	.	.	.
.	.	12cc#/J	12ee\J	.	.	.	.	.	.
4E\	.	8r	8r	.	.	2a\	-nu	2r	2r
.	.	8c#/	8a/	.	.	.	.	.	.
!	!	!LO:TUP:b:problem=klamra łukowa	!LO:TUP:a:problem=klamra łukowa	!	!	!	!	!	!
4E\	.	12c#/L	12a\L	.	.	.	.	.	.
.	.	12d/	12b\	.	.	.	.	.	.
.	.	12e/J	12cc#\J	.	.	.	.	.	.
=44	=44	=44	=44	=44	=44	=44	=44	=44	=44
!	!	!	!	!	!	!	!	!	!LO:TX:a:t=1
4EE/	7 3#	8r	8r	2.E\	-nu-	2.b\	nu-	1r	1r
.	.	8g#X/	8b\	.	.	.	.	.	.
!	!	!LO:TUP:b:problem=klamra łukowa	!	!	!	!	!	!	!
4EE/	.	12g#/L	12b\L	.	.	.	.	.	.
.	.	12a/	12cc#\	.	.	.	.	.	.
.	.	12b/J	12dd\J	.	.	.	.	.	.
!	!	!LO:LB:g=original	!	!	!	!	!	!	!
4EE/	.	8r	8r	.	.	.	.	.	.
.	.	8B/	8g#X/	.	.	.	.	.	.
!	!	!LO:TUP:b:problem=klamra łukowa	!LO:TUP:b:problem=klamra łukowa	!	!	!	!	!	!
4EE/	.	12B/L	12g#/L	4E\	-i	4b\	-i	.	.
.	.	12c#/	12a/	.	.	.	.	.	.
.	.	12d/J	12b/J	.	.	.	.	.	.
!!pagebreak:original
!	!	!	!LO:LB:g=original	!	!	!	!	!	!
=45	=45	=45	=45	=45	=45	=45	=45	=45	=45
4AA/	.	16c#/LL	4a/	2A\	te	2cc#\	te	2e\	2e\
.	.	16e/	.	.	.	.	.	.	.
.	.	16e/	.	.	.	.	.	.	.
.	.	16e/JJ	.	.	.	.	.	.	.
*	*	*tremolo	*tremolo	*	*	*	*	*	*
4C#/	6	16e/LL	16aa\LL	.	.	.	.	.	.
.	.	16e/	16aa\	.	.	.	.	.	.
.	.	16e/	16aa\	.	.	.	.	.	.
.	.	16e/JJ	16aa\JJ	.	.	.	.	.	.
4C#/	.	16e/LL	16ee\LL	2r	.	2r	.	2e\	2e\
.	.	16e/	16ee\	.	.	.	.	.	.
.	.	16e/	16ee\	.	.	.	.	.	.
.	.	16e/	16ee\JJ	.	.	.	.	.	.
4C#/	.	16e/	16cc#\LL	.	.	.	.	.	.
.	.	16e/	16cc#\	.	.	.	.	.	.
.	.	16e/	16cc#\	.	.	.	.	.	.
.	.	16e/JJ	16cc#\JJ	.	.	.	.	.	.
=46	=46	=46	=46	=46	=46	=46	=46	=46	=46
4D\	.	16f#/LL	4a/	1r	.	1r	.	2d\	2f#\
.	.	16f#/	.	.	.	.	.	.	.
.	.	16f#/	.	.	.	.	.	.	.
.	.	16f#/	.	.	.	.	.	.	.
4D\	.	16f#/	16aa\LL	.	.	.	.	.	.
.	.	16f#/	16aa\	.	.	.	.	.	.
.	.	16f#/	16aa\	.	.	.	.	.	.
.	.	16f#/JJ	16aa\JJ	.	.	.	.	.	.
4D\	.	16f#/LL	16ee\LL	.	.	.	.	2d\	2f#\
.	.	16f#/	16ee\	.	.	.	.	.	.
.	.	16f#/	16ee\	.	.	.	.	.	.
.	.	16f#/	16ee\JJ	.	.	.	.	.	.
4D\	.	16f#/	16cc#\LL	.	.	.	.	.	.
.	.	16f#/	16cc#\	.	.	.	.	.	.
.	.	16f#/	16cc#\	.	.	.	.	.	.
.	.	16f#/JJ	16cc#\JJ	.	.	.	.	.	.
*	*	*Xtremolo	*Xtremolo	*	*	*	*	*	*
!	!	!	!	!	!	!	!	!LO:LB:g=original	!LO:LB:g=original
=47	=47	=47	=47	=47	=47	=47	=47	=47	=47
4E\	6 4	8r	8r	1e	ge-	(16cc#\LL	ge-	2A/	2a\
.	.	.	.	.	.	16b\JJ)	.	.	.
.	.	8a/	8cc#\	.	.	4.a\	.	.	.
!	!	!LO:TUP:b:problem=klamra łukowa	!LO:TUP:a:problem=klamra łukowa	!	!	!	!	!	!
4E\	.	12a/L	12cc#\L	.	.	.	.	.	.
.	.	12b/	12dd\	.	.	.	.	.	.
.	.	12cc#/J	12ee\J	.	.	.	.	.	.
4E\	.	8r	8r	.	.	2a\	.	2r	2r
.	.	8c#/	8a/	.	.	.	.	.	.
!	!	!LO:TUP:b:problem=klamra łukowa	!LO:TUP:b:problem=klamra łukowa	!	!	!	!	!	!
4E\	.	12c#/L	12a/L	.	.	.	.	.	.
.	.	12d/	12b/	.	.	.	.	.	.
.	.	12e/J	12cc#/J	.	.	.	.	.	.
!!linebreak:original
!LO:LB:g=original	!	!	!	!	!	!LO:LB:g=original	!	!	!
=48	=48	=48	=48	=48	=48	=48	=48	=48	=48
!	!	!	!	!	!	!	!	!	!LO:TX:a:t=1
4EE/	7 3#	8r	8r	2.E\	-nu-	2.b\	-nu-	1r	1r
.	.	8g#X/	8b\	.	.	.	.	.	.
!	!	!LO:TUP:b:problem=klamra łukowa	!LO:TUP:a:problem=klamra łukowa	!	!	!	!	!	!
4EE/	.	12g#/L	12b\L	.	.	.	.	.	.
.	.	12a/	12cc#\	.	.	.	.	.	.
.	.	12b/J	12dd\J	.	.	.	.	.	.
4EE/	.	8r	8r	.	.	.	.	.	.
.	.	8B/	8g#X/	.	.	.	.	.	.
!	!	!LO:TUP:b:problem=klamra łukowa	!	!	!	!	!	!	!
4EE/	.	12B/L	12g#/L	4E\	-i	4b\	-i	.	.
.	.	12c#/	12a/	.	.	.	.	.	.
.	.	12d/J	12b/J	.	.	.	.	.	.
=49	=49	=49	=49	=49	=49	=49	=49	=49	=49
8AA'/L	.	8c#'/L	2a 2e 2A/	2AA/	te	2a\	te	2A/	2A/
8BB'/	.	8d'/	.	.	.	.	.	.	.
8C#'/	.	8e'/	.	.	.	.	.	.	.
8BB'/J	.	8d'/J	.	.	.	.	.	.	.
8AA'/L	.	8c#'/L	2a 2e 2A/	2r	.	2r	.	2A/	2A/
8BB'/	.	8d'/	.	.	.	.	.	.	.
8C#'/	.	8e'/	.	.	.	.	.	.	.
8BB'/J	.	8d'/J	.	.	.	.	.	.	.
!	!	!LO:LB:g=original	!	!	!	!	!	!	!
=50	=50	=50	=50	=50	=50	=50	=50	=50	=50
2AA/	.	2a 2e 2c#/	2a 2e 2A/	1r	.	1r	.	2A/	2A/
!	!	!	!LO:N:vis=4	!	!	!	!	!	!
2r	.	16r	16r	.	.	.	.	2r	2r
.	.	(16d/LL	16d/LL	.	.	.	.	.	.
.	.	16e/	16e/	.	.	.	.	.	.
.	.	16f#/	16f#/	.	.	.	.	.	.
.	.	16g/	16g/	.	.	.	.	.	.
.	.	16a/	16a/	.	.	.	.	.	.
.	.	16b/	16b/	.	.	.	.	.	.
.	.	16cc#/JJ)	16cc#/JJ	.	.	.	.	.	.
=51	=51	=51	=51	=51	=51	=51	=51	=51	=51
!LO:TX:b:t=uniſono	!	!	!	!	!	!	!	!	!
!LO:TX:a:t=|	!	!	!	!	!	!	!	!	!
2d\	.	2dd\	2dd\	2d\	ju-	2dd\	Ju-	2d\	2d\
!LO:TX:a:t=|	!	!	!	!	!	!	!	!	!
2A\	.	2a/	2a/	2A\	-ra-	2a\	.	2A/	2A/
!	!	!	!LO:LB:g=original	!LO:LB:g=original	!	!	!	!	!
=52	=52	=52	=52	=52	=52	=52	=52	=52	=52
.	.	.	8qqg/	.	.	.	.	.	.
4.F#t\	.	4.f#/	4.f#/	4.F#\	.	4.f#/	.	4d\	4f#\
.	.	.	.	.	.	.	.	4A/	4e\
8E\	.	8e/	8e/	8E\	.	8e/	-ra-	.	.
2D\	.	2d/	2d/	2D\	-vit	2d/	-vit	2F#/	2d\
=53	=53	=53	=53	=53	=53	=53	=53	=53	=53
!LO:TX:a:t=|	!	!	!	!	!	!	!	!	!
4F#\	.	4f#/	4f#/	4F#\	Do-	4f#/	Do-	4d\	4f#\
!LO:TX:a:t=|	!	!LO:TUP:a:problem=klamra łukowa	!LO:TUP:a:problem=klamra łukowa	!	!	!	!	!	!
4D\	.	12d/L	12d/L	4D\	.	4d/	.	4F#/	4d\
.	.	12c#/	12c#/	.	.	.	.	.	.
.	.	12d/J	12d/J	.	.	.	.	.	.
!LO:TX:a:t=|	!	!LO:TUP:a:problem=klamra łukowa	!LO:TUP:a:problem=klamra łukowa	!	!	!	!	!	!
4F#\	.	12f#/L	12f#/L	4F#\	.	4f#/	.	4d\	4f#\
.	.	12e/	12e/	.	.	.	.	.	.
.	.	12f#/J	12f#/J	.	.	.	.	.	.
!LO:TX:a:t=|	!	!LO:TUP:a:problem=klamra łukowa	!	!	!	!	!	!	!
4G#X\	.	12g#X/L	12g#X/L	4G#X\	.	4g#X/	.	4e\	4g#X\
.	.	12f#/	12f#/	.	.	.	.	.	.
.	.	12g#/J	12g#/J	.	.	.	.	.	.
!!pagebreak:original
=54	=54	=54	=54	=54	=54	=54	=54	=54	=54
.	.	.	8qqg/	.	.	.	.	.	.
4A\	.	4a/	4a/	8A\	.	8a\L	.	4A/	4a\
.	.	.	.	8A\	mi-	8a\J	mi-	.	.
4AA/	.	4A/	4A/	4A\	-nus	4a\	-nus	4A/	4A/
2r	.	2r	2r	2r	.	2r	.	2r	2r
=55	=55	=55	=55	=55	=55	=55	=55	=55	=55
4d\	.	4a/	2ff#\	4d\	et	4ff#\	et	2d\	2f#\
4A\	.	2a/	.	4d\	non	4ff#\	non	.	.
4c#\	6	.	4ee\	4c#\	pe-	4ee\	pe-	2A/	2e\
4A\	.	4a/	8gg#X\L	4c#\	-ni-	4ee\	-ni-	.	.
.	.	.	8aa\J	.	.	.	.	.	.
=56	=56	=56	=56	=56	=56	=56	=56	=56	=56
4d\	.	4a/	8ff#\L	2d\	-te-	2ff#\	-te-	2d\	2e\
.	.	.	8gg#X\	.	.	.	.	.	.
4A\	.	2a/	8gg#\	.	.	.	.	.	.
.	.	.	8aa\J	.	.	.	.	.	.
4c#\	6	.	8ee\L	2c#\	-bit	2ee\	-bit	2r	2r
.	.	.	8gg#X\	.	.	.	.	.	.
4A\	.	4a/	8gg#\	.	.	.	.	.	.
.	.	.	8aa\J	.	.	.	.	.	.
!	!	!LO:LB:g=original	!	!	!	!	!	!	!
=57	=57	=57	=57	=57	=57	=57	=57	=57	=57
!	!	!	!	!	!	!	!	!LO:TX:t=P:problem=od tego momentu są problemy ze skoordynowaniem Corno 1 i 2	!
4B\	7	4a/	1dd	1B	e-	1dd	e-	1ryy	1e
4B\	.	8g#X/L	.	.	.	.	.	.	.
.	.	8f#/J	.	.	.	.	.	.	.
4BB/	6\	2g#X/	.	.	.	.	.	.	.
4BB/	.	.	.	.	.	.	.	.	.
!	!	!	!	!	!	!	!	!	!LO:LB:g=original
=58	=58	=58	=58	=58	=58	=58	=58	=58	=58
.	.	.	8qqdd/	.	.	.	.	.	.
4AA/	.	4a/	2cc#\	2A\	-um	2cc#\	-um	1A	2a\
!	!	!LO:TUP:a:problem=klamra łukowa	!	!	!	!	!	!	!
4C#/	6	12a\L	.	.	.	.	.	.	.
.	.	12aa\	.	.	.	.	.	.	.
.	.	12aa\J	.	.	.	.	.	.	.
!	!	!LO:TUP:a:problem=klamra łukowa	!	!	!	!	!	!	!
4D/	6 5	12b\L	2r	2r	.	2r	.	.	2r
.	.	12aa\	.	.	.	.	.	.	.
.	.	12aa\J	.	.	.	.	.	.	.
!	!	!LO:TUP:a:problem=klamra łukowa	!	!	!	!	!	!	!
4E/	6 3	12cc#\L	.	.	.	.	.	.	.
.	.	12aa\	.	.	.	.	.	.	.
.	.	12aa\J	.	.	.	.	.	.	.
!	!	!	!	!LO:LB:g=original	!	!LO:LB:g=original	!	!LO:LB:g=original	!
=59	=59	=59	=59	=59	=59	=59	=59	=59	=59
4D\	.	2a/	4.ff#\	2D\	tu-	1r	.	1A	2f#\
4D\	.	.	.	.	.	.	.	.	.
.	.	.	16ggn\LL	.	.	.	.	.	.
.	.	.	16aa\JJ	.	.	.	.	.	.
4D\	.	4.ff#\	2dd\	4D\	-es	.	.	.	2f#\
4D\	.	.	.	4D\	sa-	.	.	.	.
.	.	(16gg\LL	.	.	.	.	.	.	.
.	.	16aa\JJ)	.	.	.	.	.	.	.
!!linebreak:original
!LO:LB:g=original	!	!	!LO:LB:g=original	!	!	!	!	!	!
=60	=60	=60	=60	=60	=60	=60	=60	=60	=60
!	!	!	!	!	!	!	!	!	!LO:TX:a:t=1
4D\	7n	2dd\	4.ff#\	2D\	-cer-	4.a\	Do-	1d	1r
4D\	.	.	.	.	.	.	.	.	.
.	.	.	16gg\LL	.	.	8a\	-mi-	.	.
.	.	.	16aa\JJ	.	.	.	.	.	.
.	.	.	8qqdd/	.	.	.	.	.	.
4D\	.	4.ff#\	2cc#\	2D\	-dos	4a\	-nus	.	.
4D\	.	.	.	.	.	4a\	a	.	.
.	.	(16gg\LL	.	.	.	.	.	.	.
.	.	16aa\JJ)	.	.	.	.	.	.	.
=61	=61	=61	=61	=61	=61	=61	=61	=61	=61
!	!	!	!	!	!	!	!	!	!LO:TX:t=P:problem=brakujące 3 takty pauz?
4r	.	4gg\	4b/	2.G\	in	2b\	dex-	1d	1ryy
4GG/	.	8bb\L	2ddd\	.	.	.	.	.	.
.	.	8bb\J	.	.	.	.	.	.	.
4BB/	6	4aa\	.	.	.	2dd\	-tris	.	.
4D/	7n	4r	4ccc#\	4D/	e-	.	.	.	.
=62	=62	=62	=62	=62	=62	=62	=62	=62	=62
!	!	!	!	!	!	!	!	!LO:TX:a:t=2	!
4G\	4n 9	2aa\	2cccn\	2G\	-ter-	2dd\	tu-	0r	1ryy
4GG/	.	.	.	.	.	.	.	.	.
4G\	3 8	2gg\	2bb\	2GG/	-num	2dd\	-is	.	.
4Fn\	.	.	.	.	.	.	.	.	.
=63	=63	=63	=63	=63	=63	=63	=63	=63	=63
4E\	3#	2r	4.gg#X\	1E	se-	4ee\	Con-	.	1ryy
4E\	.	.	.	.	.	4b\	-fre-	.	.
.	.	.	16aa\LL	.	.	.	.	.	.
.	.	.	16bb\JJ	.	.	.	.	.	.
4E\	.	4.gg#X\	2ee\	.	.	4b\	-git	.	.
4E\	.	.	.	.	.	4b\	in	.	.
.	.	(16aa\LL	.	.	.	.	.	.	.
.	.	16bb\JJ)	.	.	.	.	.	.	.
!	!	!LO:LB:g=original	!	!	!	!	!	!	!
=64	=64	=64	=64	=64	=64	=64	=64	=64	=64
4E\	7 3#	2ee\	4.gg#X\	2E\	-cun-	4b\	di-	1A	1e
4E\	.	.	.	.	.	4b\	-e	.	.
.	.	.	16aa\LL	.	.	.	.	.	.
.	.	.	16bb\JJ	.	.	.	.	.	.
.	.	.	8qqee/	.	.	.	.	.	.
4E\	.	4.gg#X\	2dd\	2E\	-dum	4b\	i-	.	.
4E\	.	.	.	.	.	4b\	-re	.	.
.	.	(16aa\LL	.	.	.	.	.	.	.
.	.	16bb\JJ)	.	.	.	.	.	.	.
!!pagebreak:original
=65	=65	=65	=65	=65	=65	=65	=65	=65	=65
4r	.	4aa\	4cc#X\	4.A\	or-	2cc#\	su-	1A	1e
4AA/	3n	2ccc#\	2eee\	.	.	.	.	.	.
.	.	.	.	8A\	-di-	.	.	.	.
4C#/	6	.	.	4A\	-ne	2ee\	-e	.	.
4E\	7 3#	4bb\	4ddd\	4E\	mel-	.	.	.	.
=66	=66	=66	=66	=66	=66	=66	=66	=66	=66
4A\	4 9	2bb\	2ddd\	4.A\	-chi-	2ee\	re-	4e\	4e\
(8A\L	.	.	.	.	.	.	.	4e\	4e\
8G#X\J)	.	.	.	8A\	-se-	.	.	.	.
(8A\L	3 8	2aa\	2ccc#\	2A\	-dech	2ee\	-ges	4e\	4e\
8G#\)	.	.	.	.	.	.	.	.	.
(8A\	.	.	.	.	.	.	.	4A/	4a\
8G#\J)	.	.	.	.	.	.	.	.	.
!	!	!	!	!LO:LB:g=original	!	!	!	!	!
=67	=67	=67	=67	=67	=67	=67	=67	=67	=67
!	!	!LO:TUP:a:problem=klamra łukowa	!LO:TUP:a:problem=klamra łukowa	!	!	!	!	!LO:TX:a:t=5	!LO:TX:a:t=5
4AA/	.	12a\L	12cc#\L	4A\	ju-	4cc#\	iu-	00r	00r
.	.	12b\	12b\	.	.	.	.	.	.
.	.	12cc#\J	12a\J	.	.	.	.	.	.
!	!	!LO:TUP:a:problem=klamra łukowa	!LO:TUP:a:problem=klamra łukowa	!	!	!	!	!	!
4r	.	12cc#\L	12a\L	4A\	-di-	4cc#\	-di-	.	.
.	.	12b\	12b\	.	.	.	.	.	.
.	.	12a\J	12cc#\J	.	.	.	.	.	.
!	!	!LO:TUP:a:problem=klamra łukowa	!LO:TUP:a:problem=klamra łukowa	!	!	!	!	!	!
4AA/	.	12a\L	12cc#\L	4A\	-ca-	4cc#\	-ca-	.	.
.	.	12b\	12dd\	.	.	.	.	.	.
.	.	12cc#\J	12ee\J	.	.	.	.	.	.
!	!	!LO:TUP:a:problem=klamra łukowa	!LO:TUP:a:problem=klamra łukowa	!	!	!	!	!	!
4r	.	12cc#\L	12ee\L	8A\	-bit	8cc#\	-bit	.	.
.	.	12b\	12dd\	.	.	.	.	.	.
.	.	.	.	8A\	in	8cc#\	in	.	.
.	.	12a\J	12cc#\J	.	.	.	.	.	.
!	!	!	!LO:LB:g=original	!	!	!	!	!	!
=68	=68	=68	=68	=68	=68	=68	=68	=68	=68
!	!	!LO:TUP:a:problem=klamra łukowa	!LO:TUP:a:problem=klamra łukowa	!	!	!	!	!	!
4AA/	4 2	12b\L	12dd\L	4B\	na-	4dd\	na-	.	.
.	.	12cc#\	12cc#\	.	.	.	.	.	.
.	.	12dd\J	12b\J	.	.	.	.	.	.
!	!	!LO:TUP:a:problem=klamra łukowa	!LO:TUP:a:problem=klamra łukowa	!	!	!	!	!	!
4r	.	12dd\L	12b\L	4B\	-ti-	4dd\	-ti-	.	.
.	.	12cc#\	12cc#\	.	.	.	.	.	.
.	.	12b\J	12dd\J	.	.	.	.	.	.
!	!	!LO:TUP:a:problem=klamra łukowa	!LO:TUP:a:problem=klamra łukowa	!	!	!	!	!	!
4AA/	4 2	12b\L	12dd\L	8B\	-o-	4dd\	-o-	.	.
.	.	12cc#\	12ee\	.	.	.	.	.	.
.	.	.	.	8B\	-ni-	.	.	.	.
.	.	12dd\J	12ff#\J	.	.	.	.	.	.
!	!	!LO:TUP:a:problem=klamra łukowa	!LO:TUP:a:problem=klamra łukowa	!	!	!	!	!	!
4r	.	12dd\L	12ff#\L	4B\	-bus	8dd\	-ni-	.	.
.	.	12cc#\	12ee\	.	.	.	.	.	.
.	.	.	.	.	.	8dd\	-bus	.	.
.	.	12b\J	12dd\J	.	.	.	.	.	.
!!pagebreak:original
!	!	!LO:LB:g=original	!	!	!	!LO:LB:g=original	!	!	!
=69	=69	=69	=69	=69	=69	=69	=69	=69	=69
!	!	!LO:TUP:a:problem=klamra łukowa	!LO:TUP:a:problem=klamra łukowa	!	!	!	!	!	!
4AA/	5 7	12cc#\L	12ee\L	4c#\	im-	4ee\	im-	.	.
.	.	12b\	12dd\	.	.	.	.	.	.
.	.	12a\J	12cc#\J	.	.	.	.	.	.
!	!	!LO:TUP:a:problem=klamra łukowa	!LO:TUP:a:problem=klamra łukowa	!	!	!	!	!	!
4r	.	12a\L	12cc#\L	4c#\	-ple-	4ee\	-ple-	.	.
.	.	12b\	12dd\	.	.	.	.	.	.
.	.	12cc#\J	12ee\J	.	.	.	.	.	.
!	!	!LO:TUP:a:problem=klamra łukowa	!LO:TUP:a:problem=klamra łukowa	!	!	!	!	!	!
4AA/	7	12cc#\L	12ee\L	4c#\	-bit	4ee\	-bit	.	.
.	.	12dd\	12ff#\	.	.	.	.	.	.
.	.	12ee\J	12gg\J	.	.	.	.	.	.
!	!	!LO:TUP:a:problem=klamra łukowa	!LO:TUP:a:problem=klamra łukowa	!	!	!	!	!	!
4r	.	12ee\L	12gg\L	4c#\	ru-	4ee\	ru-	.	.
.	.	12dd\	12ff#\	.	.	.	.	.	.
.	.	12cc#\J	12ee\J	.	.	.	.	.	.
=70	=70	=70	=70	=70	=70	=70	=70	=70	=70
!	!	!LO:TUP:a:problem=klamra łukowa	!LO:TUP:a:problem=klamra łukowa	!	!	!	!	!	!
4AA/	6 4	12dd\L	12ff#\L	2d\	-i-	2ff#\	-i-	.	.
.	.	12ee\	12ee\	.	.	.	.	.	.
.	.	12ff#\J	12dd\J	.	.	.	.	.	.
!	!	!LO:TUP:a:problem=klamra łukowa	!LO:TUP:a:problem=klamra łukowa	!	!	!	!	!	!
4r	.	12ff#\L	12dd\L	.	.	.	.	.	.
.	.	12ee\	12ee\	.	.	.	.	.	.
.	.	12dd\J	12ff#\J	.	.	.	.	.	.
!	!	!LO:TUP:a:problem=klamra łukowa	!LO:TUP:a:problem=klamra łukowa	!	!	!	!	!	!
4AA/	6 4	12dd\L	12ff#\L	2d\	-nas	2ff#\	-nas	.	.
.	.	12ee\	12gg\	.	.	.	.	.	.
.	.	12ff#\J	12aa\J	.	.	.	.	.	.
!	!	!LO:TUP:a:problem=klamra łukowa	!LO:TUP:a:problem=klamra łukowa	!	!	!	!	!	!
4r	.	12ff#\L	12aa\L	.	.	.	.	.	.
.	.	12ee\	12gg\	.	.	.	.	.	.
.	.	12dd\J	12ff#\J	.	.	.	.	.	.
!LO:LB:g=original	!	!	!	!	!	!	!	!	!
=71	=71	=71	=71	=71	=71	=71	=71	=71	=71
!	!	!LO:TUP:a:problem=klamra łukowa	!LO:TUP:a:problem=klamra łukowa	!	!	!	!	!	!
4AA/	7 3	12ee\L	12gg\L	2c#\	Con-	2.ee\	Con-	1r	1r
.	.	12dd\	12ff#\	.	.	.	.	.	.
.	.	12cc#\J	12ee\J	.	.	.	.	.	.
!	!	!LO:TUP:a:problem=klamra łukowa	!LO:TUP:a:problem=klamra łukowa	!	!	!	!	!	!
4r	.	12cc#\L	12ee\L	.	.	.	.	.	.
.	.	12dd\	12ff#\	.	.	.	.	.	.
.	.	12ee\J	12gg\J	.	.	.	.	.	.
!	!	!LO:TUP:a:problem=klamra łukowa	!LO:TUP:a:problem=klamra łukowa	!	!	!	!	!	!
4AA/	7	12ee\L	12gg\L	2c#\	-qua-	.	.	.	.
.	.	12ff#\	12aa\	.	.	.	.	.	.
.	.	12gg\J	12bb\J	.	.	.	.	.	.
!	!	!LO:TUP:a:problem=klamra łukowa	!LO:TUP:a:problem=klamra łukowa	!	!	!	!	!	!
4r	.	12gg\L	12bb\L	.	.	4ee\	-qua-	.	.
.	.	12ff#\	12aa\	.	.	.	.	.	.
.	.	12ee\J	12gg\J	.	.	.	.	.	.
!	!	!	!LO:LB:g=original	!	!	!	!	!	!
=72	=72	=72	=72	=72	=72	=72	=72	=72	=72
4D\	.	8b\L	4ff# 4a 4d/	2d\	-sa-	2dd\	-ſa-	4d\	4f#\
.	.	8dd\J	.	.	.	.	.	.	.
4d\	.	4ff#\	2aa\	.	.	.	.	2A/	2a\
4e\	6	4gg\	.	4e\	.	2a\	-bit	.	.
4c#\	6 5	4ee\	4aa\	4c#\	-bit	.	.	4A/	4a\
!	!	!LO:LB:g=original	!	!LO:LB:g=original	!	!	!	!	!
=73	=73	=73	=73	=73	=73	=73	=73	=73	=73
4d\	.	4ff#\	4aa\	2d\	ca-	2.a\	Ca-	4d\	4f#\
4D\	.	4f#/	2aa\	.	.	.	.	4A/	4a\
4E\	6	4g/	.	4e\	-pi-	.	.	4e\	4g\
4C#/	6 5	4f#/	4aa\	4c#\	-ta	4a\	-pi-	4A/	4e\
!!pagebreak:original
=74	=74	=74	=74	=74	=74	=74	=74	=74	=74
4D\	.	4f#/	4aa\	2d\	.	2a\	-ta	4d\	4f#\
4d\	.	4ff#\	2aa\	.	.	.	.	4A/	4a\
4e\	6	4gg\	.	4e\	.	2a\	in	4e\	4g\
4c#\	6 5	4ff#\	4aa\	4c#\	in	.	.	4A/	4e\
=75	=75	=75	=75	=75	=75	=75	=75	=75	=75
!	!	!	!	!	!	!	!	!	!LO:TX:a:t=1
2D\	.	2ff#\	4aa\	2d\	ter-	2a\	ter-	1r	1r
.	.	.	4ddd\	.	.	.	.	.	.
2E\	6	2gg\	32ccc#\LLL	2D\	-ra	2gg\	-ra	.	.
.	.	.	32bb\JJ	.	.	.	.	.	.
.	.	.	8.aa\J	.	.	.	.	.	.
.	.	.	32gg\LLL	.	.	.	.	.	.
.	.	.	(32ff#\JJ	.	.	.	.	.	.
.	.	.	8.ee\J)	.	.	.	.	.	.
=76	=76	=76	=76	=76	=76	=76	=76	=76	=76
4r	.	4r	4.dd\	4r	.	16ff#\LL	mul-	2d\	2d\
.	.	.	.	.	.	16ee\JJ	.	.	.
.	.	.	.	.	.	4dd\	.	.	.
!	!	!LO:TUP:b:problem=klamra łukowa	!	!	!	!	!	!	!
4F#'\	6	12a/L	.	4F#\	mul-	.	.	.	.
.	.	12g/	.	.	.	.	.	.	.
.	.	.	8ee\	.	.	8ee\	-to-	.	.
.	.	12a/J	.	.	.	.	.	.	.
!	!	!LO:TUP:b:problem=klamra łukowa	!	!	!	!	!	!	!
4G'\	6	12b/L	2ee\	4G\	.	2ee\	-rum	2A/	2e\
.	.	12a/	.	.	.	.	.	.	.
.	.	12b/J	.	.	.	.	.	.	.
!	!	!LO:TUP:a:problem=klamra łukowa	!	!	!	!	!	!	!
4A\	7	12cc#\L	.	4A\	-to-	.	.	.	.
.	.	12b\	.	.	.	.	.	.	.
.	.	12cc#\J	.	.	.	.	.	.	.
!	!	!	!	!	!	!	!	!LO:LB:g=original	!LO:LB:g=original
=77	=77	=77	=77	=77	=77	=77	=77	=77	=77
4D\	.	16dd\LL	4dd\	2D/	-rum	2dd\	.	2d\	2c#\
.	.	16a\	.	.	.	.	.	.	.
.	.	16a\	.	.	.	.	.	.	.
.	.	16a\JJ	.	.	.	.	.	.	.
*	*	*tremolo	*tremolo	*	*	*	*	*	*
4F#\	6	16a/LL	16ddd\LL	.	.	.	.	.	.
.	.	16a/	16ddd\	.	.	.	.	.	.
.	.	16a/	16ddd\	.	.	.	.	.	.
.	.	16a/JJ	16ddd\JJ	.	.	.	.	.	.
4F#\	.	16a/LL	16aa\LL	4r	.	2r	.	2r	2r
.	.	16a/	16aa\	.	.	.	.	.	.
.	.	16a/	16aa\	.	.	.	.	.	.
.	.	16a/	16aa\JJ	.	.	.	.	.	.
4F#\	.	16a/	16ff#\LL	4r	.	.	.	.	.
.	.	16a/	16ff#\	.	.	.	.	.	.
.	.	16a/	16ff#\	.	.	.	.	.	.
.	.	16a/JJ	16ff#\JJ	.	.	.	.	.	.
!!linebreak:original
=78	=78	=78	=78	=78	=78	=78	=78	=78	=78
!	!	!	!	!	!	!	!	!LO:TX:t=P:problem=brakujący takt?	!
4G\	.	16b\LL	4dd\	1r	.	1r	.	1ryy	2c#\
.	.	16b\	.	.	.	.	.	.	.
.	.	16b\	.	.	.	.	.	.	.
.	.	16b\	.	.	.	.	.	.	.
4G\	.	16b\	16ddd\LL	.	.	.	.	.	.
.	.	16b\	16ddd\	.	.	.	.	.	.
.	.	16b\	16ddd\	.	.	.	.	.	.
.	.	16b\JJ	16ddd\JJ	.	.	.	.	.	.
4G\	.	16cc#\LL	16bb\LL	.	.	.	.	.	2r
.	.	16cc#\	16bb\	.	.	.	.	.	.
.	.	16cc#\	16bb\	.	.	.	.	.	.
.	.	16cc#\	16bb\JJ	.	.	.	.	.	.
4G\	.	16cc#\	16gg\LL	.	.	.	.	.	.
.	.	16cc#\	16gg\	.	.	.	.	.	.
.	.	16cc#\	16gg\	.	.	.	.	.	.
.	.	16cc#\JJ	16gg\JJ	.	.	.	.	.	.
*	*	*Xtremolo	*Xtremolo	*	*	*	*	*	*
=79	=79	=79	=79	=79	=79	=79	=79	=79	=79
4A\	6 4	8r	8r	1A	mol-	(16ff#\LL	mul-	2d\	2f#\
.	.	.	.	.	.	16ee\JJ)	.	.	.
.	.	8dd\	8ff#\	.	.	4.dd\	.	.	.
!	!	!LO:TUP:a:problem=klamra łukowa	!LO:TUP:a:problem=klamra łukowa	!	!	!	!	!	!
4A\	.	12dd\L	12ff#\L	.	.	.	.	.	.
.	.	12ee\	12gg\	.	.	.	.	.	.
.	.	12ff#\J	12aa\J	.	.	.	.	.	.
!	!	!LO:LB:g=original	!LO:LB:g=original	!	!	!	!	!	!
4A\	.	8r	8r	.	.	2dd\	.	2d\	2f#\
.	.	8f#/	8dd\	.	.	.	.	.	.
!	!	!LO:TUP:b:problem=klamra łukowa	!LO:TUP:a:problem=klamra łukowa	!	!	!	!	!	!
4A\	.	12f#/L	12dd\L	.	.	.	.	.	.
.	.	12g/	12ee\	.	.	.	.	.	.
.	.	12a/J	12ff#\J	.	.	.	.	.	.
!	!	!	!	!	!	!LO:LB:g=original	!	!	!
=80	=80	=80	=80	=80	=80	=80	=80	=80	=80
4AA/	7 3	8r	8r	1AA	-to-	1ee	-to-	2A/	2e\
.	.	8cc#\	8ee\	.	.	.	.	.	.
!	!	!LO:TUP:a:problem=klamra łukowa	!LO:TUP:a:problem=klamra łukowa	!	!	!	!	!	!
4AA/	.	12cc#\L	12ee\L	.	.	.	.	.	.
.	.	12dd\	12ff#\	.	.	.	.	.	.
.	.	12ee\J	12gg\J	.	.	.	.	.	.
4AA/	.	8r	8r	.	.	.	.	2A/	2e\
.	.	8e/	8cc#\	.	.	.	.	.	.
!	!	!LO:TUP:b:problem=klamra łukowa	!LO:TUP:a:problem=klamra łukowa	!	!	!	!	!	!
4AA/	.	12e/L	12cc#\L	.	.	.	.	.	.
.	.	12f#/	12dd\	.	.	.	.	.	.
.	.	12g/J	12ee\J	.	.	.	.	.	.
!!pagebreak:original
=81	=81	=81	=81	=81	=81	=81	=81	=81	=81
4D\	.	16f#/LL	4dd\	2D/	-rum	2ff#\	-rum	2d\	2c#\
.	.	16a/	.	.	.	.	.	.	.
.	.	16a/	.	.	.	.	.	.	.
.	.	16a/JJ	.	.	.	.	.	.	.
*	*	*tremolo	*tremolo	*	*	*	*	*	*
4F#\	6	16a/LL	16ddd\LL	.	.	.	.	.	.
.	.	16a/	16ddd\	.	.	.	.	.	.
.	.	16a/	16ddd\	.	.	.	.	.	.
.	.	16a/JJ	16ddd\JJ	.	.	.	.	.	.
4F#\	.	16a/LL	16aa\LL	2r	.	2r	.	2r	2r
.	.	16a/	16aa\	.	.	.	.	.	.
.	.	16a/	16aa\	.	.	.	.	.	.
.	.	16a/	16aa\JJ	.	.	.	.	.	.
4F#\	.	16a/	16ff#\LL	.	.	.	.	.	.
.	.	16a/	16ff#\	.	.	.	.	.	.
.	.	16a/	16ff#\	.	.	.	.	.	.
.	.	16a/JJ	16ff#\JJ	.	.	.	.	.	.
!LO:LB:g=original	!	!	!	!LO:LB:g=original	!	!	!	!	!
=82	=82	=82	=82	=82	=82	=82	=82	=82	=82
4G\	.	16b\LL	4dd\	1r	.	1r	.	2d\	2c#\
.	.	16b\	.	.	.	.	.	.	.
.	.	16b\	.	.	.	.	.	.	.
.	.	16b\	.	.	.	.	.	.	.
4G\	.	16b\	16ddd\LL	.	.	.	.	.	.
.	.	16b\	16ddd\	.	.	.	.	.	.
.	.	16b\	16ddd\	.	.	.	.	.	.
.	.	16b\JJ	16ddd\JJ	.	.	.	.	.	.
4G\	.	16b\LL	16bb\LL	.	.	.	.	2r	2r
.	.	16b\	16bb\	.	.	.	.	.	.
.	.	16b\	16bb\	.	.	.	.	.	.
.	.	16b\	16bb\JJ	.	.	.	.	.	.
4G\	.	16b\	16gg\LL	.	.	.	.	.	.
.	.	16b\	16gg\	.	.	.	.	.	.
.	.	16b\	16gg\	.	.	.	.	.	.
.	.	16b\JJ	16gg\JJ	.	.	.	.	.	.
*	*	*Xtremolo	*Xtremolo	*	*	*	*	*	*
=83	=83	=83	=83	=83	=83	=83	=83	=83	=83
4A\	6 4	8r	8r	1A	mol-	(16ff#\LL	mul-	2d\	2f#\
.	.	.	.	.	.	16ee\JJ)	.	.	.
.	.	8dd\	8ff#\	.	.	4.dd\	.	.	.
!	!	!LO:TUP:a:problem=klamra łukowa	!LO:TUP:a:problem=klamra łukowa	!	!	!	!	!	!
4A\	.	12dd\L	12ff#\L	.	.	.	.	.	.
.	.	12ee\	12gg\	.	.	.	.	.	.
.	.	12ff#\J	12aa\J	.	.	.	.	.	.
4A\	.	8r	8r	.	.	2dd\	.	2d\	2f#\
.	.	8f#/	8dd\	.	.	.	.	.	.
!	!	!LO:TUP:b:problem=klamra łukowa	!LO:TUP:a:problem=klamra łukowa	!	!	!	!	!	!
4A\	.	12f#/L	12dd\L	.	.	.	.	.	.
.	.	12g/	12ee\	.	.	.	.	.	.
.	.	12a/J	12ff#\J	.	.	.	.	.	.
!!linebreak:original
!	!	!LO:LB:g=original	!	!	!	!	!	!	!
=84	=84	=84	=84	=84	=84	=84	=84	=84	=84
4AA/	7 3	8r	8r	2AA/	-to-	1ee	-to-	2A/	2e\
.	.	8cc#\	8ee\	.	.	.	.	.	.
!	!	!LO:TUP:a:problem=klamra łukowa	!LO:TUP:a:problem=klamra łukowa	!	!	!	!	!	!
4AA/	.	12cc#\L	12ee\L	.	.	.	.	.	.
.	.	12dd\	12ff#\	.	.	.	.	.	.
.	.	12ee\J	12gg\J	.	.	.	.	.	.
!	!	!	!LO:LB:g=original	!	!	!	!	!	!
4AA/	.	8r	8r	2AA/	.	.	.	2A/	2e\
.	.	8e/	8cc#\	.	.	.	.	.	.
!	!	!LO:TUP:b:problem=klamra łukowa	!LO:TUP:a:problem=klamra łukowa	!	!	!	!	!	!
4AA/	.	12e/L	12cc#\L	.	.	.	.	.	.
.	.	12f#/	12dd\	.	.	.	.	.	.
.	.	12g/J	12ee\J	.	.	.	.	.	.
=85	=85	=85	=85	=85	=85	=85	=85	=85	=85
2d'\	.	2dd 2f#/	2dd\	2D/	-rum	2dd\	-rum	2d\	2d\
!LO:TX:a:t=|	!	!	!	!	!	!	!	!	!
2A\	.	2a/	2a/	2r	.	2r	.	2A/	2A/
=86	=86	=86	=86	=86	=86	=86	=86	=86	=86
*	*	*tremolo	*tremolo	*	*	*	*	*	*
!	!	!	!	!LO:TX:a:t=6	!	!LO:TX:a:t=6	!	!	!LO:TX:a:t=3
4F#'\	.	16f#/LL	16f#/LL	00r	.	00r	.	0r	0r
.	.	16f#/	16f#/	.	.	.	.	.	.
.	.	16f#/	16f#/	.	.	.	.	.	.
.	.	16f#/JJ	16f#/JJ	.	.	.	.	.	.
4C#'/	.	16c#/LL	16c#/LL	.	.	.	.	.	.
.	.	16c#/	16c#/	.	.	.	.	.	.
.	.	16c#/	16c#/	.	.	.	.	.	.
.	.	16c#/JJ	16c#/JJ	.	.	.	.	.	.
4D'/	.	16d/LL	16d/LL	.	.	.	.	.	.
.	.	16d/	16d/	.	.	.	.	.	.
.	.	16d/	16d/	.	.	.	.	.	.
.	.	16d/JJ	16d/JJ	.	.	.	.	.	.
4E'/	.	16e/LL	16e/LL	.	.	.	.	.	.
.	.	16e/	16e/	.	.	.	.	.	.
.	.	16e/	16e/	.	.	.	.	.	.
.	.	16e/JJ	16e/JJ	.	.	.	.	.	.
=87	=87	=87	=87	=87	=87	=87	=87	=87	=87
4F#'\	.	16f#/LL	16f#/LL	.	.	.	.	.	.
.	.	16f#/	16f#/	.	.	.	.	.	.
.	.	16f#/	16f#/	.	.	.	.	.	.
.	.	16f#/JJ	16f#/JJ	.	.	.	.	.	.
4G'\	.	16g/LL	16g/LL	.	.	.	.	.	.
.	.	16g/	16g/	.	.	.	.	.	.
.	.	16g/	16g/	.	.	.	.	.	.
.	.	16g/JJ	16g/JJ	.	.	.	.	.	.
4A'\	.	16a/LL	16a/LL	.	.	.	.	.	.
.	.	16a/	16a/	.	.	.	.	.	.
.	.	16a/	16a/	.	.	.	.	.	.
.	.	16a/JJ	16a/JJ	.	.	.	.	.	.
4B'\	.	16b/LL	16b/LL	.	.	.	.	.	.
.	.	16b/	16b/	.	.	.	.	.	.
.	.	16b/	16b/	.	.	.	.	.	.
.	.	16b/JJ	16b/JJ	.	.	.	.	.	.
!!pagebreak:original
=88	=88	=88	=88	=88	=88	=88	=88	=88	=88
4c#'\	.	16cc#\LL	16cc#\LL	.	.	.	.	1r	1r
.	.	16cc#\	16cc#\	.	.	.	.	.	.
.	.	16cc#\	16cc#\	.	.	.	.	.	.
.	.	16cc#\JJ	16cc#\JJ	.	.	.	.	.	.
4d'\	.	16dd\LL	16dd\LL	.	.	.	.	.	.
.	.	16dd\	16dd\	.	.	.	.	.	.
.	.	16dd\	16dd\	.	.	.	.	.	.
.	.	16dd\JJ	16dd\JJ	.	.	.	.	.	.
4BB/	.	16B/LL	16B/LL	.	.	.	.	.	.
.	.	16B/	16B/	.	.	.	.	.	.
.	.	16B/	16B/	.	.	.	.	.	.
.	.	16B/JJ	16B/JJ	.	.	.	.	.	.
4GG/	.	16G/LL	16G/LL	.	.	.	.	.	.
.	.	16G/	16G/	.	.	.	.	.	.
.	.	16G/	16G/	.	.	.	.	.	.
.	.	16G/JJ	16G/JJ	.	.	.	.	.	.
*	*	*Xtremolo	*Xtremolo	*	*	*	*	*	*
=89	=89	=89	=89	=89	=89	=89	=89	=89	=89
*	*	*	*Xtuplet	*	*	*	*	*	*
!	!	!LO:TUP:b:problem=klamra łukowa	!	!	!	!	!	!	!
4AA/	6 4	12d'/L	12ff#'\L	.	.	.	.	4d\	4f#\
.	.	12f#/	12aa'\	.	.	.	.	.	.
.	.	12f#/J	12aa'\J	.	.	.	.	.	.
!	!	!LO:TUP:b:problem=klamra łukowa	!	!	!	!	!	!	!
4AA/	.	12f#'/L	12dd'\L	.	.	.	.	4d\	4f#\
.	.	12a/	12ff#'\	.	.	.	.	.	.
.	.	12a/J	12ff#'\J	.	.	.	.	.	.
!	!	!LO:LB:g=original	!	!	!	!	!	!	!
4AA/	7 3	12c#'/L	12ee'\L	.	.	.	.	4A/	4e\
.	.	12e'/	12gg'\	.	.	.	.	.	.
.	.	12e'/J	12gg'\J	.	.	.	.	.	.
4AA/	.	12e'/L	12cc#'\L	.	.	.	.	4A/	4e\
.	.	12g'/	12ee'\	.	.	.	.	.	.
.	.	12g'/J	12ee'\J	.	.	.	.	.	.
!	!	!	!	!	!	!	!	!	!LO:LB:g=original
=90	=90	=90	=90	=90	=90	=90	=90	=90	=90
8D'\L	.	8f#'/L	2ddd 2a 2d/	0r	.	0r	.	2d\	2f#\
8E'\	.	8g'/	.	.	.	.	.	.	.
8F#'\	.	8a'/	.	.	.	.	.	.	.
8E'\J	.	8g'/J	.	.	.	.	.	.	.
8D'\L	.	8f#'/L	2ddd 2a 2d/	.	.	.	.	2d\	2f#\
8E'\	.	8g'/	.	.	.	.	.	.	.
8F#'\	.	8a'/	.	.	.	.	.	.	.
8E'\J	.	8g'/J	.	.	.	.	.	.	.
=91	=91	=91	=91	=91	=91	=91	=91	=91	=91
2D\	.	2ff# 2a 2d 2G/	2ddd 2a 2d/	.	.	.	.	2d\	2f#\
2r	.	2r	2r	.	.	.	.	2r	2r
==	==	==	==	==	==	==	==	==	==
*-	*-	*-	*-	*-	*-	*-	*-	*-	*-
!!!system-decoration: [(s1,s2)][(s3,s4)][(s5,s6)]s7
!!!ENC: Filip Voros
!!!END: 2021-11-14
!!!ENC: Leszek Kubiak
!!!END: 2021-11-18
